christmas.trees/img/svg/icon-user.svg

<svg width="19" height="19" viewBox="0 0 19 19" fill="none" xmlns="http://www.w3.org/2000/svg">
<g clip-path="url(#clip0)">
<path d="M9.49997 10.7019C3.79117 10.7019 0.647156 13.4026 0.647156 18.3065C0.647156 18.6895 0.957576 19 1.34058 19H17.6593C18.0423 19 18.3527 18.6895 18.3527 18.3065C18.3528 13.4028 15.2088 10.7019 9.49997 10.7019ZM2.05924 17.6131C2.332 13.9465 4.83179 12.0888 9.49997 12.0888C14.1681 12.0888 16.668 13.9465 16.941 17.6131H2.05924Z" fill="white"/>
<path d="M9.49998 0C6.87765 0 4.90024 2.01719 4.90024 4.692C4.90024 7.44514 6.96367 9.68469 9.49998 9.68469C12.0363 9.68469 14.0997 7.44514 14.0997 4.69222C14.0997 2.01719 12.1223 0 9.49998 0ZM9.49998 8.29806C7.72827 8.29806 6.28709 6.6805 6.28709 4.69222C6.28709 2.77697 7.63835 1.38685 9.49998 1.38685C11.3318 1.38685 12.7129 2.8077 12.7129 4.69222C12.7129 6.6805 11.2717 8.29806 9.49998 8.29806Z" fill="white"/>
</g>
<defs>
<clipPath id="clip0">
<rect width="19" height="19" fill="white"/>
</clipPath>
</defs>
</svg>

<svg width="19" height="19" fill="none" xmlns="http://www.w3.org/2000/svg"><g clip-path="url(#clip0)" fill="#fff"><path d="M9.5 10.702c-5.709 0-8.853 2.7-8.853 7.604 0 .383.31.694.694.694h16.318c.383 0 .694-.31.694-.694 0-4.903-3.144-7.604-8.853-7.604zm-7.44 6.911c.272-3.666 2.772-5.524 7.44-5.524 4.668 0 7.168 1.857 7.441 5.524H2.059zM9.5 0C6.878 0 4.9 2.017 4.9 4.692c0 2.753 2.064 4.993 4.6 4.993 2.536 0 4.6-2.24 4.6-4.993C14.1 2.017 12.122 0 9.5 0zm0 8.298c-1.772 0-3.213-1.617-3.213-3.606 0-1.915 1.351-3.305 3.213-3.305 1.832 0 3.213 1.42 3.213 3.305 0 1.989-1.441 3.606-3.213 3.606z"/></g><defs><clipPath id="clip0"><path fill="#fff" d="M0 0h19v19H0z"/></clipPath></defs></svg>
